account-key-outline.svg

<svg fill="currentColor" viewBox="0 0 24 24"><path d="M5.8 10C5.4 8.8 4.3 8 3 8c-1.7 0-3 1.3-3 3s1.3 3 3 3c1.3 0 2.4-.8 2.8-2H7v2h2v-2h2v-2zM3 12c-.6 0-1-.4-1-1s.4-1 1-1 1 .4 1 1-.4 1-1 1m13-8c-2.2 0-4 1.8-4 4s1.8 4 4 4 4-1.8 4-4-1.8-4-4-4m0 6.1c-1.2 0-2.1-.9-2.1-2.1s.9-2.1 2.1-2.1 2.1.9 2.1 2.1-.9 2.1-2.1 2.1m0 2.9c-2.7 0-8 1.3-8 4v3h16v-3c0-2.7-5.3-4-8-4m6.1 5.1H9.9V17c0-.6 3.1-2.1 6.1-2.1s6.1 1.5 6.1 2.1z"/></svg>

<svg  viewBox="0 0 24 24" fill="currentColor"><path  d="M5.8 10C5.4 8.8 4.3 8 3 8C1.3 8 0 9.3 0 11S1.3 14 3 14C4.3 14 5.4 13.2 5.8 12H7V14H9V12H11V10H5.8M3 12C2.4 12 2 11.6 2 11S2.4 10 3 10 4 10.4 4 11 3.6 12 3 12M16 4C13.8 4 12 5.8 12 8S13.8 12 16 12 20 10.2 20 8 18.2 4 16 4M16 10.1C14.8 10.1 13.9 9.2 13.9 8C13.9 6.8 14.8 5.9 16 5.9C17.2 5.9 18.1 6.8 18.1 8S17.2 10.1 16 10.1M16 13C13.3 13 8 14.3 8 17V20H24V17C24 14.3 18.7 13 16 13M22.1 18.1H9.9V17C9.9 16.4 13 14.9 16 14.9C19 14.9 22.1 16.4 22.1 17V18.1Z"/></svg>
